src/images/mobile-icons/sent.svg

<svg viewBox="0 0 512 512" xmlns="http://www.w3.org/2000/svg" xmlns:xlink="http://www.w3.org/1999/xlink">
  <title>sent</title>
  <path d="M269.224234,67.0745396 L271.084945,68.7322753 L421.934391,219.581722 C430.265576,227.912907 430.265576,241.420426 421.934391,249.751611 C414.198291,257.487712 401.998923,258.04029 393.625213,251.409347 L391.764502,249.751611 L277.33322,135.320887 L277.333333,426.666667 C277.333333,438.448741 267.782075,448 256,448 C244.217925,448 234.666667,438.448741 234.666667,426.666667 L234.66622,135.319887 L120.235498,249.751611 C112.499398,257.487712 100.300029,258.04029 91.9263194,251.409347 L90.0656087,249.751611 C82.3295084,242.015511 81.7769298,229.816143 88.4078729,221.442433 L90.0656087,219.581722 L240.915055,68.7322753 C248.651156,60.9961751 260.850524,60.4435965 269.224234,67.0745396 Z" fill="#000" fill-rule="nonzero" xlink:href="#a" stroke="none" stroke-width="1"></path>
</svg>

<svg viewBox="0 0 512 512" xmlns="http://www.w3.org/2000/svg" xmlns:xlink="http://www.w3.org/1999/xlink">
  <title>sent</title>
  <path d="M269.224 67.075l1.86 1.657 150.85 150.85c8.332 8.33 8.332 21.838 0 30.17-7.736 7.736-19.935 8.288-28.309 1.657l-1.86-1.657L277.333 135.32v291.346c0 11.782-9.55 21.333-21.333 21.333-11.782 0-21.333-9.551-21.333-21.333V135.32L120.234 249.752c-7.736 7.736-19.935 8.288-28.309 1.657l-1.86-1.657c-7.736-7.736-8.29-19.936-1.658-28.31l1.658-1.86 150.85-150.85c7.735-7.736 19.935-8.288 28.308-1.657z" fill="#000" fill-rule="nonzero" xlink:href="#a" stroke="none" stroke-width="1"></path>
</svg>
